src/assets/icons/star_icon.svg

<svg width="24" height="24" viewBox="0 0 24 24" fill="none" xmlns="http://www.w3.org/2000/svg">
<path d="M11.1751 6.20359C11.5723 5.62401 12.4277 5.62401 12.8249 6.20359L14.2677 8.3088C14.3977 8.49853 14.5892 8.63764 14.8098 8.70268L17.2578 9.42431C17.9318 9.62298 18.1961 10.4364 17.7676 10.9933L16.2113 13.016C16.071 13.1983 15.9979 13.4234 16.0042 13.6533L16.0744 16.2045C16.0937 16.9069 15.4017 17.4097 14.7397 17.1742L12.335 16.3191C12.1183 16.2421 11.8817 16.2421 11.665 16.3191L9.26029 17.1742C8.59828 17.4097 7.9063 16.9069 7.92562 16.2045L7.99579 13.6533C8.00211 13.4234 7.92898 13.1983 7.78872 13.016L6.23238 10.9933C5.80392 10.4364 6.06823 9.62298 6.74218 9.42431L9.19021 8.70268C9.41084 8.63764 9.6023 8.49853 9.73233 8.3088L11.1751 6.20359Z" fill="currentColor"/>
</svg>

<svg width="24" height="24" viewBox="0 0 24 24" fill="none" xmlns="http://www.w3.org/2000/svg"><path d="M11.1751 6.2036c.3972-.5796 1.2526-.5796 1.6498 0l1.4428 2.1052a1 1 0 0 0 .5421.3939l2.448.7216c.674.1987.9383 1.0121.5098 1.569l-1.5563 2.0227a1 1 0 0 0-.2071.6373l.0702 2.5512c.0193.7024-.6727 1.2052-1.3347.9697l-2.4047-.8551a1.0005 1.0005 0 0 0-.67 0l-2.4047.8551c-.662.2355-1.354-.2673-1.3347-.9697l.0702-2.5512a1.0001 1.0001 0 0 0-.207-.6373l-1.5564-2.0227c-.4285-.5569-.1642-1.3703.5098-1.569l2.448-.7216a1 1 0 0 0 .5421-.3939l1.4428-2.1052Z" fill="currentColor"/></svg>
